;FLAVOR:Marlin
;TIME:3220
;Filament used: 5.68329m
;Layer height: 0.2
;MINX:-47.045
;MINY:-50.38
;MINZ:0.2
;MAXX:47.095
;MAXY:50.141
;MAXZ:6.7
;Generated with Cura_SteamEngine 5.2.1
M82 ;absolute extrusion mode
G21 ; millimeter units
G90 ; absolute coordinates
M82 ; E absolute
M140 S60
M104 S220
M190 S60
M109 S220
G28 ; home axis
M420 S1 ; enable mesh leveling
; Lower nozzle and move to start position
G1 Z150
G1 X-130 Y0 Z0.4 F3000
; Extrude about 40 mm by printing a 90 degree arc
G3 X0 Y-130 I130 Z0.3 E40 F2700
; Retract and move nozzle up
G92 E0
G1 E-1.5 F1800
G0 Z0.5
G1 E0 F300

G92 E0
G92 E0
G1 F2400 E-6.5
;LAYER_COUNT:32
;LAYER:0
M107
G1 F3000 Z0.5
G0 X1.439 Y-15.735 Z0.5
;TYPE:SKIRT
G1 F3000 Z0.2
G1 F2400 E0
G1 F1500 X-6.665 Y-15.736 E0.26954
G1 X-7.266 Y-15.782 E0.28959
G1 X-7.82 Y-15.605 E0.30893
G1 X-8.575 Y-15.441 E0.33463
G1 X-8.999 Y-15.261 E0.34995
G1 X-9.613 Y-14.807 E0.37535
G1 X-9.926 Y-14.596 E0.3879
G1 X-10.28 Y-14.079 E0.40874
G1 X-10.562 Y-13.564 E0.42827
G1 X-10.953 Y-12.716 E0.45933
G1 X-23.872 Y35.594 E2.12259
G1 X-24.351 Y37.166 E2.17725
G1 X-24.828 Y38.456 E2.22299
G1 X-25.194 Y39.384 E2.25617
G1 X-26.297 Y41.553 E2.3371
G1 X-26.643 Y42.288 E2.36412
G1 X-26.914 Y42.74 E2.38165
G1 X-26.909 Y42.743 E2.38185
G1 X-27.337 Y43.45 E2.40933
G1 X-27.818 Y44.103 E2.43631
G1 X-28.191 Y44.661 E2.45863
G1 X-28.678 Y45.28 E2.48483
G1 X-29.237 Y45.806 E2.51036
G1 X-29.689 Y46.121 E2.52868
G1 X-29.896 Y46.231 E2.53648
G1 X-31.232 Y47.581 E2.59965
G1 X-31.647 Y47.943 E2.61797
G1 X-32.11 Y48.242 E2.6363
G1 X-32.802 Y48.536 E2.6613
G1 X-33.126 Y48.695 E2.67331
G1 X-33.61 Y48.957 E2.69161
G1 X-33.962 Y49.085 E2.70407
G1 X-34.66 Y49.394 E2.72946
G1 X-35.179 Y49.579 E2.74779
G1 X-35.719 Y49.688 E2.76611
G1 X-35.946 Y49.7 E2.77367
G1 X-36.442 Y49.846 E2.79087
G1 X-37.156 Y49.984 E2.81505
G1 X-37.992 Y50.034 E2.84291
G1 X-39.238 Y50.136 E2.88449
G1 X-39.789 Y50.141 E2.90282
G1 X-40.577 Y50.007 E2.9294
G1 X-41.09 Y49.863 E2.94712
G1 X-41.563 Y49.771 E2.96315
G1 X-41.957 Y49.821 E2.97636
G1 X-42.508 Y49.811 E2.99469
G1 X-43.051 Y49.721 E3.013
G1 X-43.53 Y49.572 E3.02968
G1 X-44.616 Y49.153 E3.0684
G1 X-45.114 Y48.918 E3.08671
G1 X-45.573 Y48.614 E3.10502
G1 X-45.983 Y48.246 E3.12335
G1 X-46.336 Y47.822 E3.1417
G1 X-46.624 Y47.352 E3.16003
G1 X-46.841 Y46.846 E3.17834
G1 X-46.982 Y46.313 E3.19668
G1 X-47.045 Y45.766 E3.21499
G1 X-47.028 Y45.215 E3.23333
G1 X-46.918 Y44.624 E3.25332
G1 X-22.602 Y-46.103 E6.37741
G1 X-22.422 Y-46.623 E6.39572
G1 X-22.167 Y-47.112 E6.41406
G1 X-21.845 Y-47.559 E6.43238
G1 X-21.462 Y-47.955 E6.45071
G1 X-21.025 Y-48.291 E6.46904
G1 X-20.544 Y-48.56 E6.48737
G1 X-20.03 Y-48.757 E6.50568
G1 X-19.492 Y-48.878 E6.52402
G1 X-18.943 Y-48.919 E6.54233
G1 X-18.436 Y-48.885 E6.55923
G1 X-17.906 Y-49.422 E6.58433
G1 X-17.467 Y-49.754 E6.60263
G1 X-16.983 Y-50.019 E6.62098
G1 X-16.467 Y-50.211 E6.6393
G1 X-15.928 Y-50.327 E6.65763
G1 X-15.407 Y-50.363 E6.675
G1 X0.007 Y-50.38 E7.18768
G1 X15.409 Y-50.351 E7.69995
G1 X15.959 Y-50.31 E7.71829
G1 X16.496 Y-50.19 E7.73659
G1 X17.011 Y-49.993 E7.75493
G1 X17.492 Y-49.725 E7.77325
G1 X17.929 Y-49.389 E7.79158
G1 X18.411 Y-48.883 E7.81482
G1 X19.007 Y-48.918 E7.83468
G1 X19.555 Y-48.868 E7.85298
G1 X20.091 Y-48.738 E7.87133
G1 X20.602 Y-48.532 E7.88965
G1 X21.078 Y-48.255 E7.90797
G1 X21.509 Y-47.912 E7.92629
G1 X21.886 Y-47.51 E7.94462
G1 X22.201 Y-47.057 E7.96297
G1 X22.446 Y-46.564 E7.98128
G1 X22.602 Y-46.103 E7.99747
G1 X46.967 Y44.809 E11.12793
G1 X47.071 Y45.35 E11.14625
G1 X47.095 Y45.901 E11.16459
G1 X47.04 Y46.449 E11.18291
G1 X46.906 Y46.984 E11.20126
G1 X46.696 Y47.493 E11.21957
G1 X46.414 Y47.966 E11.23789
G1 X46.067 Y48.394 E11.25621
G1 X45.662 Y48.768 E11.27455
G1 X45.207 Y49.078 E11.29286
G1 X44.711 Y49.32 E11.31121
G1 X44.045 Y49.532 E11.33446
G1 X43.071 Y49.643 E11.36707
G1 X40.964 Y50.047 E11.43842
G1 X40.184 Y50.114 E11.46446
G1 X39.485 Y50.102 E11.48771
G1 X38.65 Y50.022 E11.51561
G1 X37.431 Y49.972 E11.55619
G1 X36.707 Y49.871 E11.5805
G1 X34.606 Y49.37 E11.65234
G1 X33.949 Y49.163 E11.67525
G1 X32.271 Y48.257 E11.73868
G1 X32.187 Y48.22 E11.74173
G1 X31.701 Y47.96 E11.76006
G1 X31.258 Y47.632 E11.7784
G1 X30.925 Y47.365 E11.79259
G1 X30.168 Y46.793 E11.82415
G1 X29.754 Y46.43 E11.84246
G1 X29.396 Y46.01 E11.86082
G1 X29.049 Y45.686 E11.87661
G1 X28.68 Y45.277 E11.89493
G1 X28.589 Y45.146 E11.90024
G1 X28.122 Y44.573 E11.92482
G1 X27.737 Y43.992 E11.948
G1 X27.44 Y43.63 E11.96358
G1 X27.02 Y43 E11.98876
G1 X25.329 Y39.817 E12.10864
G1 X25.038 Y39.101 E12.13435
G1 X24.586 Y37.557 E12.18786
G1 X24.304 Y36.695 E12.21802
G1 X24.157 Y36.4 E12.22898
G1 X23.966 Y35.793 E12.25015
G1 X23.857 Y35.307 E12.26671
G1 X16.852 Y9.297 E13.16264
G1 X11.113 Y-12.227 E13.90354
G1 X10.993 Y-12.56 E13.91531
G1 X10.854 Y-13.041 E13.93196
G1 X10.8 Y-13.29 E13.94044
G1 X10.646 Y-13.576 E13.95124
G1 X9.615 Y-14.897 E14.00698
G1 X9.1 Y-15.275 E14.02822
G1 X8.232 Y-15.52 E14.05822
G1 X7.977 Y-15.589 E14.06701
G1 X7.447 Y-15.672 E14.08485
G1 X6.734 Y-15.75 E14.10871
G1 X1.439 Y-15.735 E14.28482
G0 F3000 X1.439 Y-16.135
G1 F1500 X-6.665 Y-16.136 E14.55436
G1 X-7.323 Y-16.19 E14.57632
G1 X-7.429 Y-16.146 E14.58014
G1 X-7.939 Y-15.987 E14.5979
G1 X-8.686 Y-15.829 E14.6233
G1 X-9.191 Y-15.617 E14.64151
G1 X-9.851 Y-15.129 E14.66882
G1 X-10.199 Y-14.898 E14.68271
G1 X-10.629 Y-14.276 E14.70786
G1 X-10.916 Y-13.751 E14.72776
G1 X-11.331 Y-12.848 E14.76081
G1 X-24.258 Y35.49 E16.42504
G1 X-24.702 Y36.946 E16.47567
G1 X-25.2 Y38.31 E16.52396
G1 X-25.56 Y39.222 E16.55657
G1 X-26.671 Y41.407 E16.6381
G1 X-27.005 Y42.117 E16.6642
G1 X-27.664 Y43.22 E16.70693
G1 X-28.14 Y43.866 E16.73362
G1 X-28.523 Y44.439 E16.75655
G1 X-28.976 Y45.015 E16.78092
G1 X-29.511 Y45.513 E16.80523
G1 X-29.942 Y45.805 E16.82254
G1 X-30.14 Y45.909 E16.82998
G1 X-31.516 Y47.299 E16.89504
G1 X-31.91 Y47.641 E16.91239
G1 X-32.352 Y47.918 E16.92974
G1 X-32.921 Y48.154 E16.95023
G1 X-33.117 Y48.215 E16.95705
G1 X-33.341 Y48.358 E16.96589
G1 X-33.8 Y48.604 E16.98321
G1 X-34.141 Y48.727 E16.99527
G1 X-34.822 Y49.028 E17.02003
G1 X-35.313 Y49.201 E17.03735
G1 X-35.826 Y49.298 E17.05471
G1 X-36.016 Y49.304 E17.06104
G1 X-36.555 Y49.463 E17.07973
G1 X-37.194 Y49.586 E17.10137
G1 X-38.01 Y49.634 E17.12856
G1 X-39.271 Y49.738 E17.17064
G1 X-39.792 Y49.74 E17.18797
G1 X-40.468 Y49.622 E17.21079
G1 X-41 Y49.472 E17.22918
G1 X-41.546 Y49.367 E17.24767
G1 X-42.007 Y49.423 E17.26312
G1 X-42.527 Y49.407 E17.28042
G1 X-43.142 Y49.293 E17.30122
G1 X-44.472 Y48.78 E17.34864
G1 X-44.942 Y48.556 E17.36595
G1 X-45.373 Y48.262 E17.38331
G1 X-45.754 Y47.906 E17.40065
G1 X-46.075 Y47.496 E17.41797
G1 X-46.331 Y47.042 E17.4353
G1 X-46.514 Y46.554 E17.45264
G1 X-46.62 Y46.044 E17.46996
G1 X-46.647 Y45.523 E17.48732
G1 X-46.586 Y44.931 E17.50711
G1 X-22.216 Y-45.999 E20.63819
G1 X-22.043 Y-46.491 E20.65553
G1 X-21.797 Y-46.95 E20.67285
G1 X-21.483 Y-47.366 E20.69019
G1 X-21.11 Y-47.73 E20.70752
G1 X-20.685 Y-48.032 E20.72486
G1 X-20.219 Y-48.266 E20.74221
G1 X-19.723 Y-48.426 E20.75954
G1 X-19.209 Y-48.508 E20.77685
G1 X-18.512 Y-48.493 E20.80004
G1 X-18.246 Y-48.486 E20.80889
G1 X-17.989 Y-48.77 E20.82163
G1 X-17.622 Y-49.139 E20.83894
G1 X-17.202 Y-49.448 E20.85628
G1 X-16.74 Y-49.689 E20.87361
G1 X-16.246 Y-49.857 E20.89097
G1 X-15.643 Y-49.963 E20.91133
G1 X0.006 Y-49.98 E21.43182
G1 X15.408 Y-49.951 E21.94409
G1 X15.928 Y-49.91 E21.96144
G1 X16.435 Y-49.79 E21.97877
G1 X16.918 Y-49.594 E21.99611
G1 X17.365 Y-49.327 E22.01343
G1 X17.767 Y-48.994 E22.03079
G1 X18.166 Y-48.557 E22.05047
G1 X18.304 Y-48.478 E22.05576
G1 X19.027 Y-48.518 E22.07984
G1 X19.545 Y-48.463 E22.09717
G1 X20.049 Y-48.33 E22.11451
G1 X20.527 Y-48.122 E22.13184
G1 X20.967 Y-47.843 E22.14917
G1 X21.359 Y-47.5 E22.1665
G1 X21.695 Y-47.101 E22.18385
G1 X21.965 Y-46.655 E22.20119
G1 X22.216 Y-45.999 E22.22455
G1 X46.581 Y44.913 E25.355
G1 X46.677 Y45.425 E25.37233
G1 X46.694 Y45.946 E25.38967
G1 X46.63 Y46.463 E25.407
G1 X46.489 Y46.965 E25.42434
G1 X46.272 Y47.439 E25.44168
G1 X45.986 Y47.874 E25.45899
G1 X45.636 Y48.261 E25.47635
G1 X45.231 Y48.589 E25.49368
G1 X44.781 Y48.852 E25.51102
G1 X44.296 Y49.043 E25.52835
G1 X43.683 Y49.171 E25.54918
G1 X43.003 Y49.249 E25.57195
G1 X40.889 Y49.654 E25.64354
G1 X40.191 Y49.714 E25.66684
G1 X39.492 Y49.702 E25.69009
G1 X38.674 Y49.623 E25.71742
G1 X37.448 Y49.572 E25.75824
G1 X36.799 Y49.482 E25.78003
G1 X34.698 Y48.981 E25.85187
G1 X34.104 Y48.791 E25.87261
G1 X32.45 Y47.899 E25.93511
G1 X32.35 Y47.854 E25.93876
G1 X31.891 Y47.607 E25.9561
G1 X31.476 Y47.292 E25.97343
G1 X31.351 Y47.156 E25.97957
G1 X31.166 Y47.046 E25.98673
G1 X30.409 Y46.474 E26.01828
G1 X30.019 Y46.129 E26.0356
G1 X29.675 Y45.689 E26.05418
G1 X29.265 Y45.338 E26.07213
G1 X28.838 Y44.83 E26.0942
G1 X28.456 Y44.352 E26.11455
G1 X28.063 Y43.758 E26.13824
G1 X27.749 Y43.376 E26.15469
G1 X27.373 Y42.812 E26.17724
G1 X25.682 Y39.629 E26.29712
G1 X25.422 Y38.989 E26.32009
G1 X24.968 Y37.437 E26.37387
G1 X24.676 Y36.549 E26.40496
G1 X24.516 Y36.223 E26.41704
G1 X24.356 Y35.705 E26.43508
G1 X24.246 Y35.213 E26.45184
G1 X17.239 Y9.194 E27.34807
G1 X11.498 Y-12.339 E28.08928
G1 X11.369 Y-12.695 E28.10187
G1 X11.179 Y-13.429 E28.12709
G1 X10.981 Y-13.797 E28.14099
G1 X9.917 Y-15.17 E28.19876
G1 X9.302 Y-15.621 E28.22413
G1 X8.938 Y-15.73 E28.23677
G1 X8.376 Y-15.893 E28.25623
G1 X8.163 Y-15.975 E28.26382
G1 X8.007 Y-15.987 E28.26902
G1 X7.474 Y-16.071 E28.28697
G1 X6.757 Y-16.152 E28.31097
G1 X1.439 Y-16.135 E28.48785
G0 F3000 X1.439 Y-16.535
G1 F1500 X-6.665 Y-16.536 E28.75739
G1 X-7.38 Y-16.596 E28.78125
G1 X-7.548 Y-16.528 E28.78728
G1 X-8.058 Y-16.369 E28.80505
G1 X-8.8 Y-16.215 E28.83025
G1 X-9.382 Y-15.973 E28.85122
G1 X-10.089 Y-15.45 E28.88047
G1 X-10.472 Y-15.197 E28.89573
G1 X-10.69 Y-14.919 E28.90748
G1 X-10.973 Y-14.479 E28.92488
G1 X-11.27 Y-13.937 E28.94544
G1 X-11.69 Y-13.023 E28.9789
G1 X-11.839 Y-12.499 E28.99702
G1 X-24.645 Y35.387 E30.64568
G1 X-25.138 Y36.988 E30.7014
G1 X-25.572 Y38.163 E30.74306
G1 X-25.924 Y39.055 E30.77495
G1 X-27.025 Y41.221 E30.85577
G1 X-27.367 Y41.947 E30.88246
G1 X-28.009 Y43.014 E30.92388
G1 X-28.473 Y43.643 E30.94987
G1 X-28.856 Y44.217 E30.97282
G1 X-29.423 Y44.886 E31.00199
G1 X-29.783 Y45.218 E31.01828
G1 X-30.378 Y45.58 E31.04144
G1 X-31.801 Y47.018 E31.10873
G1 X-32.172 Y47.337 E31.125
G1 X-32.591 Y47.591 E31.1413
G1 X-33.289 Y47.85 E31.16606
G1 X-33.989 Y48.249 E31.19286
G1 X-34.303 Y48.361 E31.20395
G1 X-34.984 Y48.662 E31.22871
G1 X-35.446 Y48.823 E31.24499
G1 X-36.085 Y48.907 E31.26642
G1 X-36.668 Y49.079 E31.28664
G1 X-37.232 Y49.188 E31.30575
G1 X-38.034 Y49.234 E31.33246
G1 X-39.303 Y49.339 E31.37482
G1 X-39.793 Y49.339 E31.39111
G1 X-40.36 Y49.237 E31.41027
G1 X-40.899 Y49.085 E31.4289
G1 X-41.538 Y48.962 E31.45054
G1 X-42.055 Y49.025 E31.46787
G1 X-42.544 Y49.003 E31.48415
G1 X-43.242 Y48.826 E31.5081
G1 X-44.328 Y48.407 E31.54681
G1 X-44.769 Y48.194 E31.5631
G1 X-45.169 Y47.912 E31.57938
G1 X-45.518 Y47.569 E31.59566
G1 X-45.807 Y47.174 E31.61193
G1 X-46.027 Y46.737 E31.62821
G1 X-46.174 Y46.27 E31.64449
G1 X-46.243 Y45.785 E31.66078
G1 X-46.232 Y45.296 E31.67705
G1 X-46.146 Y44.831 E31.69278
G1 X-21.83 Y-45.896 E34.81687
G1 X-21.665 Y-46.357 E34.83316
G1 X-21.427 Y-46.784 E34.84942
G1 X-21.123 Y-47.168 E34.86571
G1 X-20.761 Y-47.497 E34.88198
G1 X-20.35 Y-47.763 E34.89826
G1 X-19.901 Y-47.958 E34.91454
G1 X-19.426 Y-48.078 E34.93084
G1 X-18.939 Y-48.119 E34.94709
G1 X-18.379 Y-48.073 E34.96578
G1 X-18.087 Y-48.116 E34.9756
G1 X-17.921 Y-48.234 E34.98237
G1 X-17.338 Y-48.856 E35.01072
G1 X-16.939 Y-49.14 E35.02701
G1 X-16.5 Y-49.355 E35.04327
G1 X-16.031 Y-49.497 E35.05957
G1 X-15.406 Y-49.563 E35.08047
G1 X0.006 Y-49.58 E35.59308
G1 X15.408 Y-49.551 E36.10535
G1 X15.895 Y-49.51 E36.12161
G1 X16.37 Y-49.391 E36.13789
G1 X16.819 Y-49.195 E36.15419
G1 X17.23 Y-48.93 E36.17045
G1 X17.651 Y-48.537 E36.18961
G1 X17.91 Y-48.244 E36.20262
G1 X18.223 Y-48.063 E36.21464
G1 X19.046 Y-48.117 E36.24207
G1 X19.532 Y-48.058 E36.25836
G1 X20.002 Y-47.922 E36.27463
G1 X20.443 Y-47.711 E36.29089
G1 X20.844 Y-47.43 E36.30718
G1 X21.195 Y-47.089 E36.32345
G1 X21.485 Y-46.694 E36.33975
G1 X21.762 Y-46.15 E36.36006
G1 X46.195 Y45.016 E39.49926
G1 X46.282 Y45.498 E39.51555
G1 X46.291 Y45.987 E39.53181
G1 X46.219 Y46.472 E39.54812
G1 X46.07 Y46.938 E39.56439
G1 X45.847 Y47.374 E39.58068
G1 X45.556 Y47.767 E39.59695
G1 X45.205 Y48.108 E39.61322
G1 X44.803 Y48.388 E39.62952
G1 X44.361 Y48.598 E39.64579
G1 X43.827 Y48.752 E39.66428
G1 X42.936 Y48.854 E39.69411
G1 X40.814 Y49.261 E39.76597
G1 X40.198 Y49.315 E39.78654
G1 X39.499 Y49.303 E39.80979
G1 X38.699 Y49.223 E39.83653
G1 X37.464 Y49.172 E39.87764
G1 X36.892 Y49.093 E39.89685
G1 X34.791 Y48.592 E39.96869
G1 X34.251 Y48.416 E39.98758
G1 X32.634 Y47.543 E40.0487
G1 X32.083 Y47.254 E40.06939
G1 X31.595 Y46.84 E40.09068
G1 X31.407 Y46.727 E40.09797
G1 X30.65 Y46.155 E40.12953
G1 X30.285 Y45.829 E40.14581
G1 X29.937 Y45.378 E40.16475
G1 X29.487 Y44.993 E40.18445
G1 X29.106 Y44.531 E40.20437
G1 X28.789 Y44.132 E40.22132
G1 X28.379 Y43.513 E40.24601
G1 X28.058 Y43.122 E40.26284
G1 X27.727 Y42.624 E40.28273
G1 X26.036 Y39.441 E40.40261
G1 X25.806 Y38.876 E40.42289
G1 X25.355 Y37.335 E40.4763
G1 X25.047 Y36.397 E40.50914
G1 X24.877 Y36.047 E40.52208
G1 X24.639 Y35.135 E40.55343
G1 X17.625 Y9.091 E41.45052
G1 X11.879 Y-12.459 E42.19231
G1 X11.745 Y-12.831 E42.20546
G1 X11.558 Y-13.567 E42.23072
G1 X11.316 Y-14.018 E42.24775
G1 X10.194 Y-15.464 E42.30862
G1 X9.488 Y-15.982 E42.33774
G1 X9.016 Y-16.122 E42.35412
G1 X8.52 Y-16.266 E42.3713
G1 X8.25 Y-16.37 E42.38092
G1 X8.037 Y-16.386 E42.38802
G1 X7.529 Y-16.469 E42.40514
G1 X6.784 Y-16.553 E42.43008
G1 X1.439 Y-16.535 E42.60786
G0 F3000 X1.439 Y-16.935
G1 F1500 X-6.665 Y-16.936 E42.8774
G1 X-7.432 Y-17.003 E42.903
G1 X-7.667 Y-16.91 E42.91141
G1 X-8.177 Y-16.751 E42.92918
G1 X-8.916 Y-16.601 E42.95426
G1 X-9.573 Y-16.33 E42.9779
G1 X-10.327 Y-15.772 E43.0091
G1 X-10.745 Y-15.498 E43.02572
G1 X-11.017 Y-15.152 E43.04036
G1 X-11.316 Y-14.686 E43.05877
G1 X-11.633 Y-14.106 E43.08076
G1 X-12.066 Y-13.165 E43.11521
G1 X-12.213 Y-12.646 E43.13315
G1 X-25.031 Y35.284 E44.78333
G1 X-25.467 Y36.712 E44.83299
G1 X-25.944 Y38.016 E44.87917
G1 X-26.29 Y38.892 E44.9105
G1 X-27.386 Y41.048 E44.99094
G1 X-27.729 Y41.777 E45.01774
G1 X-28.339 Y42.787 E45.05698
G1 X-28.787 Y43.395 E45.0821
G1 X-29.188 Y43.995 E45.1061
G1 X-29.718 Y44.615 E45.13323
G1 X-30.054 Y44.922 E45.14837
G1 X-30.517 Y45.204 E45.1664
G1 X-30.613 Y45.25 E45.16994
G1 X-32.085 Y46.737 E45.23953
G1 X-32.433 Y47.031 E45.25469
G1 X-32.826 Y47.261 E45.26983
G1 X-33.46 Y47.484 E45.29218
G1 X-34.176 Y47.894 E45.31963
G1 X-34.458 Y47.992 E45.32956
G1 X-35.145 Y48.296 E45.35454
G1 X-35.577 Y48.443 E45.36972
G1 X-36.15 Y48.509 E45.3889
G1 X-36.781 Y48.695 E45.41078
G1 X-37.27 Y48.789 E45.42735
G1 X-38.09 Y48.838 E45.45467
G1 X-39.336 Y48.94 E45.49625
G1 X-39.791 Y48.938 E45.51138
G1 X-40.252 Y48.852 E45.52698
G1 X-40.812 Y48.695 E45.54632
G1 X-41.54 Y48.554 E45.57099
G1 X-42.1 Y48.626 E45.58977
G1 X-42.555 Y48.597 E45.60493
G1 X-43.098 Y48.453 E45.62361
G1 X-44.184 Y48.034 E45.66233
G1 X-44.593 Y47.833 E45.67749
G1 X-44.961 Y47.564 E45.69265
G1 X-45.276 Y47.235 E45.7078
G1 X-45.529 Y46.856 E45.72295
G1 X-45.712 Y46.439 E45.7381
G1 X-45.819 Y45.996 E45.75326
G1 X-45.847 Y45.541 E45.76842
G1 X-45.759 Y44.935 E45.78879
G1 X-21.443 Y-45.792 E48.91288
G1 X-21.287 Y-46.22 E48.92803
G1 X-21.059 Y-46.614 E48.94317
